assets/1. Faces/Leg/Dark/Color/leg_color_dark.svg

<svg width="100%" height="100%" viewBox="0 0 32 32" fill="none" xmlns="http://www.w3.org/2000/svg">
<g filter="url(#filter0_i_20020_4456)">
<path d="M12.5922 6.54687L24.0507 11.613C25.6767 12.3302 26.4252 14.2204 25.7309 15.8563L21.7484 25.4062C21.4678 26.0674 21.8373 26.5709 22.264 26.9219C23.0911 27.6021 24.255 28.1929 25.036 28.2635C25.1196 28.2395 25.2079 28.2266 25.2992 28.2266C25.8234 28.2266 26.2484 28.6515 26.2484 29.1758C26.2484 29.6961 25.8297 30.1186 25.3109 30.1249L25.2992 30.125L19.02 30.125C18.0044 30.125 17.2824 29.1369 17.5909 28.1693L18.0588 26.702C18.1738 26.3414 18.2196 25.9623 18.1936 25.5847L17.9594 21.7656C17.9594 19.7578 18.5154 17.7692 19.8656 16.9687L20.1747 16.7278C20.2719 16.6367 20.2954 16.6029 20.2954 16.5159C20.2954 16.3724 20.1733 16.2593 20.0303 16.2703L19.1395 16.3383C18.2783 16.4042 17.4122 16.3581 16.5628 16.2014L9.96715 14.9844C6.92029 14.4375 5.00562 11.5524 6.02973 8.87499C6.96072 6.44101 9.85785 5.40625 12.5922 6.54687Z" fill="url(#paint0_linear_20020_4456)"/>
</g>
<path d="M12.5922 6.54687L24.0507 11.613C25.6767 12.3302 26.4252 14.2204 25.7309 15.8563L21.7484 25.4062C21.4678 26.0674 21.8373 26.5709 22.264 26.9219C23.0911 27.6021 24.255 28.1929 25.036 28.2635C25.1196 28.2395 25.2079 28.2266 25.2992 28.2266C25.8234 28.2266 26.2484 28.6515 26.2484 29.1758C26.2484 29.6961 25.8297 30.1186 25.3109 30.1249L25.2992 30.125L19.02 30.125C18.0044 30.125 17.2824 29.1369 17.5909 28.1693L18.0588 26.702C18.1738 26.3414 18.2196 25.9623 18.1936 25.5847L17.9594 21.7656C17.9594 19.7578 18.5154 17.7692 19.8656 16.9687L20.1747 16.7278C20.2719 16.6367 20.2954 16.6029 20.2954 16.5159C20.2954 16.3724 20.1733 16.2593 20.0303 16.2703L19.1395 16.3383C18.2783 16.4042 17.4122 16.3581 16.5628 16.2014L9.96715 14.9844C6.92029 14.4375 5.00562 11.5524 6.02973 8.87499C6.96072 6.44101 9.85785 5.40625 12.5922 6.54687Z" fill="url(#paint1_linear_20020_4456)"/>
<path d="M12.5922 6.54687L24.0507 11.613C25.6767 12.3302 26.4252 14.2204 25.7309 15.8563L21.7484 25.4062C21.4678 26.0674 21.8373 26.5709 22.264 26.9219C23.0911 27.6021 24.255 28.1929 25.036 28.2635C25.1196 28.2395 25.2079 28.2266 25.2992 28.2266C25.8234 28.2266 26.2484 28.6515 26.2484 29.1758C26.2484 29.6961 25.8297 30.1186 25.3109 30.1249L25.2992 30.125L19.02 30.125C18.0044 30.125 17.2824 29.1369 17.5909 28.1693L18.0588 26.702C18.1738 26.3414 18.2196 25.9623 18.1936 25.5847L17.9594 21.7656C17.9594 19.7578 18.5154 17.7692 19.8656 16.9687L20.1747 16.7278C20.2719 16.6367 20.2954 16.6029 20.2954 16.5159C20.2954 16.3724 20.1733 16.2593 20.0303 16.2703L19.1395 16.3383C18.2783 16.4042 17.4122 16.3581 16.5628 16.2014L9.96715 14.9844C6.92029 14.4375 5.00562 11.5524 6.02973 8.87499C6.96072 6.44101 9.85785 5.40625 12.5922 6.54687Z" fill="url(#paint2_radial_20020_4456)"/>
<g filter="url(#filter1_f_20020_4456)">
<path d="M19.8747 25.6843L21.322 25.9908C21.322 26.4404 21.5349 26.6634 21.6711 26.8252L20.7772 28.0682L20.4196 27.2849L19.9994 27.505C19.8368 27.5902 19.636 27.5266 19.5521 27.3634C19.4674 27.1988 19.5345 26.9967 19.7007 26.9154L20.1982 26.6719L19.8747 25.6843Z" fill="url(#paint3_linear_20020_4456)"/>
</g>
<g filter="url(#filter2_f_20020_4456)">
<path d="M21.5971 28.3181C22.0002 28.6093 23.3484 29.1915 25.5163 29.1915" stroke="url(#paint4_linear_20020_4456)" stroke-width="0.5" stroke-linecap="round"/>
</g>
<g filter="url(#filter3_f_20020_4456)">
<path d="M11.3848 8.85644L23.4336 13.6939" stroke="url(#paint5_linear_20020_4456)" stroke-width="2" stroke-linecap="round"/>
</g>
<g filter="url(#filter4_f_20020_4456)">
<path d="M24.0609 14.1562L21.1859 21.5938" stroke="url(#paint6_linear_20020_4456)" stroke-width="1.5" stroke-linecap="round"/>
</g>
<defs>
<filter id="filter0_i_20020_4456" x="5.75165" y="5.08325" width="21.9968" height="25.0417" filterUnits="userSpaceOnUse" color-interpolation-filters="sRGB">
<feFlood flood-opacity="0" result="BackgroundImageFix"/>
<feBlend mode="normal" in="SourceGraphic" in2="BackgroundImageFix" result="shape"/>
<feColorMatrix in="SourceAlpha" type="matrix" values="0 0 0 0 0 0 0 0 0 0 0 0 0 0 0 0 0 0 127 0" result="hardAlpha"/>
<feOffset dx="1.5" dy="-1"/>
<feGaussianBlur stdDeviation="1.5"/>
<feComposite in2="hardAlpha" operator="arithmetic" k2="-1" k3="1"/>
<feColorMatrix type="matrix" values="0 0 0 0 0.235294 0 0 0 0 0.145098 0 0 0 0 0.203922 0 0 0 1 0"/>
<feBlend mode="normal" in2="shape" result="effect1_innerShadow_20020_4456"/>
</filter>
<filter id="filter1_f_20020_4456" x="19.0154" y="25.1843" width="3.1557" height="3.38391" filterUnits="userSpaceOnUse" color-interpolation-filters="sRGB">
<feFlood flood-opacity="0" result="BackgroundImageFix"/>
<feBlend mode="normal" in="SourceGraphic" in2="BackgroundImageFix" result="shape"/>
<feGaussianBlur stdDeviation="0.25" result="effect1_foregroundBlur_20020_4456"/>
</filter>
<filter id="filter2_f_20020_4456" x="20.8471" y="27.5681" width="5.41919" height="2.37341" filterUnits="userSpaceOnUse" color-interpolation-filters="sRGB">
<feFlood flood-opacity="0" result="BackgroundImageFix"/>
<feBlend mode="normal" in="SourceGraphic" in2="BackgroundImageFix" result="shape"/>
<feGaussianBlur stdDeviation="0.25" result="effect1_foregroundBlur_20020_4456"/>
</filter>
<filter id="filter3_f_20020_4456" x="9.38452" y="6.8562" width="16.0493" height="8.83789" filterUnits="userSpaceOnUse" color-interpolation-filters="sRGB">
<feFlood flood-opacity="0" result="BackgroundImageFix"/>
<feBlend mode="normal" in="SourceGraphic" in2="BackgroundImageFix" result="shape"/>
<feGaussianBlur stdDeviation="0.5" result="effect1_foregroundBlur_20020_4456"/>
</filter>
<filter id="filter4_f_20020_4456" x="19.4357" y="12.406" width="6.37537" height="10.938" filterUnits="userSpaceOnUse" color-interpolation-filters="sRGB">
<feFlood flood-opacity="0" result="BackgroundImageFix"/>
<feBlend mode="normal" in="SourceGraphic" in2="BackgroundImageFix" result="shape"/>
<feGaussianBlur stdDeviation="0.5" result="effect1_foregroundBlur_20020_4456"/>
</filter>
<linearGradient id="paint0_linear_20020_4456" x1="15.5922" y1="7.4375" x2="26.8422" y2="39.375" gradientUnits="userSpaceOnUse">
<stop stop-color="#583732"/>
<stop offset="1" stop-color="#4B2F36"/>
</linearGradient>
<linearGradient id="paint1_linear_20020_4456" x1="20.8422" y1="30.625" x2="20.8422" y2="28.9062" gradientUnits="userSpaceOnUse">
<stop stop-color="#41263F"/>
<stop offset="1" stop-color="#41263F" stop-opacity="0"/>
</linearGradient>
<radialGradient id="paint2_radial_20020_4456" cx="0" cy="0" r="1" gradientUnits="userSpaceOnUse" gradientTransform="translate(19.8344 16.6406) rotate(-22.8958) scale(1.74702 0.322116)">
<stop stop-color="#77615E"/>
<stop offset="0.847395" stop-color="#77615E" stop-opacity="0"/>
</radialGradient>
<linearGradient id="paint3_linear_20020_4456" x1="19.9399" y1="27.4669" x2="22.4257" y2="26.3696" gradientUnits="userSpaceOnUse">
<stop stop-color="#675250"/>
<stop offset="1" stop-color="#675250" stop-opacity="0"/>
</linearGradient>
<linearGradient id="paint4_linear_20020_4456" x1="25.3819" y1="29.1915" x2="20.3654" y2="29.1915" gradientUnits="userSpaceOnUse">
<stop stop-color="#64504F"/>
<stop offset="1" stop-color="#64504F" stop-opacity="0"/>
</linearGradient>
<linearGradient id="paint5_linear_20020_4456" x1="22.9636" y1="13.6939" x2="5.41996" y2="13.6939" gradientUnits="userSpaceOnUse">
<stop stop-color="#675250"/>
<stop offset="1" stop-color="#675250" stop-opacity="0"/>
</linearGradient>
<linearGradient id="paint6_linear_20020_4456" x1="23.9359" y1="15.5312" x2="20.6024" y2="21.625" gradientUnits="userSpaceOnUse">
<stop stop-color="#675250"/>
<stop offset="1" stop-color="#675250" stop-opacity="0"/>
</linearGradient>
</defs>
</svg>

<svg width="100%" height="100%" viewBox="0 0 32 32" xmlns="http://www.w3.org/2000/svg"><g filter="url(#a)"><path fill="url(#b)" d="m12.592 6.547 11.459 5.066a3.25 3.25 0 0 1 1.68 4.243l-3.983 9.55c-.28.661.09 1.165.516 1.516.827.68 1.991 1.27 2.772 1.342a.95.95 0 1 1 .275 1.861H19.02a1.5 1.5 0 0 1-1.43-1.956l.469-1.467a3 3 0 0 0 .135-1.117l-.235-3.82c0-2.007.556-3.996 1.907-4.796l.309-.241c.097-.091.12-.125.12-.212a.246.246 0 0 0-.265-.246l-.89.068a10 10 0 0 1-2.577-.137l-6.596-1.217c-3.047-.546-4.961-3.432-3.937-6.109.93-2.434 3.828-3.469 6.562-2.328"/></g><path fill="url(#c)" d="m12.592 6.547 11.459 5.066a3.25 3.25 0 0 1 1.68 4.243l-3.983 9.55c-.28.661.09 1.165.516 1.516.827.68 1.991 1.27 2.772 1.342a.95.95 0 1 1 .275 1.861H19.02a1.5 1.5 0 0 1-1.43-1.956l.469-1.467a3 3 0 0 0 .135-1.117l-.235-3.82c0-2.007.556-3.996 1.907-4.796l.309-.241c.097-.091.12-.125.12-.212a.246.246 0 0 0-.265-.246l-.89.068a10 10 0 0 1-2.577-.137l-6.596-1.217c-3.047-.546-4.961-3.432-3.937-6.109.93-2.434 3.828-3.469 6.562-2.328"/><path fill="url(#d)" d="m12.592 6.547 11.459 5.066a3.25 3.25 0 0 1 1.68 4.243l-3.983 9.55c-.28.661.09 1.165.516 1.516.827.68 1.991 1.27 2.772 1.342a.95.95 0 1 1 .275 1.861H19.02a1.5 1.5 0 0 1-1.43-1.956l.469-1.467a3 3 0 0 0 .135-1.117l-.235-3.82c0-2.007.556-3.996 1.907-4.796l.309-.241c.097-.091.12-.125.12-.212a.246.246 0 0 0-.265-.246l-.89.068a10 10 0 0 1-2.577-.137l-6.596-1.217c-3.047-.546-4.961-3.432-3.937-6.109.93-2.434 3.828-3.469 6.562-2.328"/><g filter="url(#e)"><path fill="url(#f)" d="m19.875 25.684 1.447.307c0 .45.213.672.35.834l-.895 1.243-.357-.783-.42.22a.33.33 0 1 1-.3-.59l.498-.243z"/></g><g filter="url(#g)"><path stroke="url(#h)" stroke-linecap="round" stroke-width=".5" d="M21.597 28.318c.403.291 1.751.874 3.92.874"/></g><g filter="url(#i)"><path stroke="url(#j)" stroke-linecap="round" stroke-width="2" d="m11.385 8.856 12.049 4.838"/></g><g filter="url(#k)"><path stroke="url(#l)" stroke-linecap="round" stroke-width="1.5" d="m24.06 14.156-2.874 7.438"/></g><defs><linearGradient id="b" x1="15.592" x2="26.842" y1="7.438" y2="39.375" gradientUnits="userSpaceOnUse"><stop stop-color="#583732"/><stop offset="1" stop-color="#4B2F36"/></linearGradient><linearGradient id="c" x1="20.842" x2="20.842" y1="30.625" y2="28.906" gradientUnits="userSpaceOnUse"><stop stop-color="#41263F"/><stop offset="1" stop-color="#41263F" stop-opacity="0"/></linearGradient><linearGradient id="f" x1="19.94" x2="22.426" y1="27.467" y2="26.37" gradientUnits="userSpaceOnUse"><stop stop-color="#675250"/><stop offset="1" stop-color="#675250" stop-opacity="0"/></linearGradient><linearGradient id="h" x1="25.382" x2="20.365" y1="29.192" y2="29.192" gradientUnits="userSpaceOnUse"><stop stop-color="#64504F"/><stop offset="1" stop-color="#64504F" stop-opacity="0"/></linearGradient><linearGradient id="j" x1="22.964" x2="5.42" y1="13.694" y2="13.694" gradientUnits="userSpaceOnUse"><stop stop-color="#675250"/><stop offset="1" stop-color="#675250" stop-opacity="0"/></linearGradient><linearGradient id="l" x1="23.936" x2="20.602" y1="15.531" y2="21.625" gradientUnits="userSpaceOnUse"><stop stop-color="#675250"/><stop offset="1" stop-color="#675250" stop-opacity="0"/></linearGradient><filter id="a" width="21.997" height="25.042" x="5.752" y="5.083" color-interpolation-filters="sRGB" filterUnits="userSpaceOnUse"><feFlood flood-opacity="0" result="BackgroundImageFix"/><feBlend in="SourceGraphic" in2="BackgroundImageFix" result="shape"/><feColorMatrix in="SourceAlpha" result="hardAlpha" values="0 0 0 0 0 0 0 0 0 0 0 0 0 0 0 0 0 0 127 0"/><feOffset dx="1.5" dy="-1"/><feGaussianBlur stdDeviation="1.5"/><feComposite in2="hardAlpha" k2="-1" k3="1" operator="arithmetic"/><feColorMatrix values="0 0 0 0 0.235294 0 0 0 0 0.145098 0 0 0 0 0.203922 0 0 0 1 0"/><feBlend in2="shape" result="effect1_innerShadow_20020_4456"/></filter><filter id="e" width="3.156" height="3.384" x="19.015" y="25.184" color-interpolation-filters="sRGB" filterUnits="userSpaceOnUse"><feFlood flood-opacity="0" result="BackgroundImageFix"/><feBlend in="SourceGraphic" in2="BackgroundImageFix" result="shape"/><feGaussianBlur result="effect1_foregroundBlur_20020_4456" stdDeviation=".25"/></filter><filter id="g" width="5.419" height="2.373" x="20.847" y="27.568" color-interpolation-filters="sRGB" filterUnits="userSpaceOnUse"><feFlood flood-opacity="0" result="BackgroundImageFix"/><feBlend in="SourceGraphic" in2="BackgroundImageFix" result="shape"/><feGaussianBlur result="effect1_foregroundBlur_20020_4456" stdDeviation=".25"/></filter><filter id="i" width="16.049" height="8.838" x="9.385" y="6.856" color-interpolation-filters="sRGB" filterUnits="userSpaceOnUse"><feFlood flood-opacity="0" result="BackgroundImageFix"/><feBlend in="SourceGraphic" in2="BackgroundImageFix" result="shape"/><feGaussianBlur result="effect1_foregroundBlur_20020_4456" stdDeviation=".5"/></filter><filter id="k" width="6.375" height="10.938" x="19.436" y="12.406" color-interpolation-filters="sRGB" filterUnits="userSpaceOnUse"><feFlood flood-opacity="0" result="BackgroundImageFix"/><feBlend in="SourceGraphic" in2="BackgroundImageFix" result="shape"/><feGaussianBlur result="effect1_foregroundBlur_20020_4456" stdDeviation=".5"/></filter><radialGradient id="d" cx="0" cy="0" r="1" gradientTransform="matrix(1.60938 -.67969 .12532 .29674 19.834 16.64)" gradientUnits="userSpaceOnUse"><stop stop-color="#77615E"/><stop offset=".847" stop-color="#77615E" stop-opacity="0"/></radialGradient></defs></svg>
